X:1
T:The Exciseman in a Coal Pit
M:6/8
L:1/8
K:A
 E| EFA BcB| AGF E2 E| EFA Bcd| edc B2 E| EFG A/2A/2 Bc| edc B2 B|\
 e2 B BA=G| AB=G FGA| Bcd c2 B| AFE E2||
